packages/core/src/svgs/tokens/mono/SMBR.svg

<svg width="24" height="24" viewBox="0 0 24 24" fill="none" xmlns="http://www.w3.org/2000/svg">
<path d="M11.4445 6.71678V5.66123C11.4445 5.32789 11.1777 5.05566 10.85 5.05566H6.45557C6.27778 5.05566 6.10557 5.12789 5.98334 5.25567L2.17223 9.10567C2.06112 9.21674 2 9.3723 2 9.52785V12.4389C2 12.8501 2.33334 13.1834 2.73334 13.1834C2.95 13.1834 3.15556 13.0946 3.30557 12.9391L4.22223 12.0167C4.38889 11.8502 4.61112 11.7224 4.85001 11.7224H8.33889C9.06113 11.7224 9.42773 12.6445 8.91668 13.1668L4.46667 17.6668C4.00001 18.1335 4.32779 18.9445 4.9889 18.9445H6.35556C6.63334 18.9445 6.89446 18.8335 7.0889 18.639L11.2722 14.4057C11.3833 14.2946 11.4445 14.139 11.4445 13.9835V10.2779C11.4445 9.86683 11.1111 9.50011 10.7 9.50011H7.03334C6.87224 9.50011 6.72223 9.59461 6.61112 9.7057L5.57223 10.6112C5.4389 10.7501 5.25556 10.8223 5.07223 10.8223C4.67779 10.8223 4.22223 10.5001 4.22223 10.1056V8.2779C4.22223 7.86123 4.6889 7.27789 5.1 7.27789H10.85C11.1833 7.27789 11.4445 7.04456 11.4445 6.71678ZM12.5556 6.71678V5.66123C12.5556 5.32789 12.8222 5.05566 13.1501 5.05566H17.5445C17.7222 5.05566 17.8945 5.12789 18.0167 5.25567L21.8279 9.10567C21.9389 9.21674 22 9.3723 22 9.52785V12.4389C22 12.8501 21.6667 13.1834 21.2667 13.1834C21.0501 13.1834 20.8445 13.0946 20.6945 12.9391L19.7778 12.0167C19.6112 11.8502 19.3889 11.7224 19.15 11.7224H15.6611C14.9389 11.7224 14.5722 12.6445 15.0833 13.1668L19.5334 17.6668C20.0001 18.1335 19.6722 18.9445 19.0111 18.9445H17.6444C17.3666 18.9445 17.1056 18.8335 16.9111 18.639L12.7278 14.4057C12.6166 14.2946 12.5556 14.139 12.5556 13.9835V10.2779C12.5556 9.86683 12.8888 9.50011 13.3 9.50011H16.9667C17.1277 9.50011 17.2779 9.59461 17.3889 9.7057L18.4278 10.6112C18.5612 10.7501 18.7445 10.8223 18.9278 10.8223C19.3222 10.8223 19.7778 10.5001 19.7778 10.1056V8.2779C19.7778 7.86123 19.3111 7.27789 18.9 7.27789H13.1501C12.8166 7.27789 12.5556 7.04456 12.5556 6.71678Z" fill="white"/>
</svg>

<svg xmlns="http://www.w3.org/2000/svg" width="24" height="24" fill="none" viewBox="0 0 24 24">
    <path fill="#fff" d="M11.445 6.717V5.66a.6.6 0 0 0-.595-.605H6.456a.66.66 0 0 0-.473.2l-3.81 3.85A.6.6 0 0 0 2 9.528v2.91c0 .412.333.745.733.745a.8.8 0 0 0 .573-.244l.916-.922c.167-.167.39-.295.628-.295h3.489c.722 0 1.089.923.578 1.445l-4.45 4.5c-.467.466-.14 1.277.522 1.277h1.367c.277 0 .538-.11.733-.305l4.183-4.233a.6.6 0 0 0 .172-.423v-3.705c0-.411-.333-.778-.744-.778H7.033c-.16 0-.31.095-.422.206l-1.039.905a.7.7 0 0 1-.5.211c-.394 0-.85-.322-.85-.716V8.278c0-.417.467-1 .878-1h5.75c.333 0 .595-.233.595-.561m1.11 0V5.66c0-.333.267-.605.595-.605h4.394c.178 0 .35.072.473.2l3.81 3.85a.6.6 0 0 1 .173.422v2.91a.74.74 0 0 1-.733.745.8.8 0 0 1-.572-.244l-.917-.922c-.167-.167-.39-.295-.628-.295h-3.489c-.722 0-1.089.923-.578 1.445l4.45 4.5c.467.466.14 1.277-.522 1.277h-1.367c-.277 0-.538-.11-.733-.305l-4.183-4.233a.6.6 0 0 1-.172-.423v-3.705c0-.411.333-.778.744-.778h3.667c.16 0 .31.095.422.206l1.039.905a.7.7 0 0 0 .5.211c.394 0 .85-.322.85-.716V8.278c0-.417-.467-1-.878-1h-5.75c-.333 0-.594-.233-.594-.561"/>
</svg>
